!!!COM: Bach, Johann Sebastian
!!!CDT: 1685/3//-1750/7/28/
!!!OTL@@DE: Hilf, Herr Jesu, lass gelingen
!!!SCT: BWV 248
**kern	**kern	**kern	**kern
*M3/4	*M3/4	*M3/4	*M3/4
=1-	=1-	=1-	=1-
2.F	2.f	2.a	2.cc
=2	=2	=2	=2
2.C	2.c	2.f	2.g
=3	=3	=3	=3
2.G	2.B-	2.d	2.b-
=4	=4	=4	=4
2.BB-	2.c	2.f	2.dd
=5	=5	=5	=5
2.F	2.A	2.f	2.cc
=6	=6	=6	=6
2.D	2.f	2.a	2.dd
=7	=7	=7	=7
2.E	2.c	2.g	2.cc
=8	=8	=8	=8
2.D	2.d	2.f	2.b-
=9	=9	=9	=9
*-	*-	*-	*-
